X:1
T:Title
%%score { ( 1 4 ) | ( 2 3 ) }
L:1/8
Q:1/4=100
M:6/8
K:Bb
V:1 treble nm="Grand Piano"
V:4 treble 
V:2 bass 
V:3 bass 
V:1
 [DB][DB][DB] [DB]2 [EB] | [DB]3- [DB]2 [FB] | d2 c B2 A | [DB]3- [DB]2 [B,DF] | %4
w: Samule~W.~Beazley * * * *||||
 [B,EG]2 [B,GB] .[EGc]2 [B,EG] | [B,DF]2 [DB] [Fd]2 [Fd] | [Fc]2 [Fc] [=Ec]2 E | %7
w: |||
[M:15/16] F3/2-F3/2-F3/2- F3 |[M:3/4] [DF][DF] [DF] [EG]2 [DF] | B6 | [^Fd]2 [Fd] [Gd]2 [Gd] | %11
w: ||||
[M:7/8] [^Fd]3 [=Fe]3 [A,EF] |[M:3/4] z2 z d z2 | z2 z e z2 | B2 A G2 A | [DB]6 |] %16
w: |||||
V:2
 [B,,F,][B,,F,][B,,F,] [B,,F,]2 [B,,G,] | [B,,F,]3- [B,,F,]2 [D,B,] | [F,B,F]2 [F,E] [F,D]2 [F,C] | %3
 [B,,F,]3- [B,,F,]2 B,, | E,2 E, z[K:treble] B[K:bass]E, | B,,2 [B,,F,] [B,,B,]2 [=B,,_A,] | %6
 [C,A,]2 [C,A,] [C,G,]2 [C,B,C] |[M:15/16] [A,C]->[A,C]B,C3/2- C3 | %8
[M:3/4] [B,,B,][B,,B,] [B,,B,] [B,,B,]2 [B,,B,] | B,,2- [B,,-G,] [B,,F,]2 [G,B,D] | %10
 [D,A,]2 [D,A,] [G,B,]2 [G,B,] |[M:7/8] A,2- [D,A,-] [C,A,]3 F, | %12
[M:3/4] B,,2 [B,,F,][B,,B,] [C,A,][D,B,] | [E,B,]2 [E,B,][C,C] [D,=B,][E,C] | %14
 [F,DF]2 [F,CE] [F,CE]2 [F,CE] | [B,,B,]6 |] %16
V:3
 x6 | x6 | x6 | x6 | z3 .E,3[K:treble][K:bass] | x6 | x6 |[M:15/16] F,3/2-F,3/2-F,3/2- F,3 | %8
[M:3/4] x6 | F,2 z2 z2 | x6 |[M:7/8] D,2 z z z z2 |[M:3/4] x6 | x6 | x6 | x6 |] %16
V:4
 x6 | x6 | x6 | x6 | x6 | x6 | x6 |[M:15/16] z3/2 z/ DE3/2- E3 |[M:3/4] x6 | D2 E D2 B | x6 | %11
[M:7/8] x7 |[M:3/4] [B,DF]2 [DB]F- [Fc][FB] | [EG]2 [EG]G- [Gd][Gc] | x6 | x6 |] %16

